src/topics/icons/udemy.svg

<svg height="256" preserveAspectRatio="xMidYMid" viewBox="0 0 256 256" width="256" xmlns="http://www.w3.org/2000/svg"><path d="m78.1568 0h148.60032c16.15104 0 29.24288 13.09184 29.24288 29.24288v146.31424c0 44.42624-36.01664 80.44288-80.44288 80.44288h-95.45216c-44.23936 0-80.10496-35.8656-80.10496-80.10496v-97.73824c0-43.16672 34.99008-78.1568 78.1568-78.1568" fill="#4fb74c"/><path d="m204.8 48.64v99.22048c0 32.86016-26.63936 59.49952-59.49952 59.49952h-32.73984c-33.88928 0-61.36064-27.47136-61.36064-61.35808v-70.6176c0-14.7712 11.97312-26.74432 26.74432-26.74432h9.09568v96.46592c0 16.00256 12.97152 28.97408 28.97408 28.97408h24.26624c15.83872 0 28.67968-12.84096 28.67968-28.67968v-70.45376c0-14.528 11.77856-26.30656 26.30656-26.30656z" fill="#fff"/></svg>

<?xml version="1.0" encoding="UTF-8" standalone="no"?>
<svg width="256px" height="256px" viewBox="0 0 256 256" version="1.1" xmlns="http://www.w3.org/2000/svg" xmlns:xlink="http://www.w3.org/1999/xlink" preserveAspectRatio="xMidYMid">
	<g>
		<path d="M78.1568,0 L226.75712,0 C242.90816,0 256,13.09184 256,29.24288 L256,175.55712 C256,219.98336 219.98336,256 175.55712,256 L80.10496,256 C35.8656,256 0,220.1344 0,175.89504 L0,78.1568 C0,34.99008 34.99008,0 78.1568,0" fill="#4FB74C"></path>
		<path d="M204.8,48.64 L204.8,147.86048 C204.8,180.72064 178.16064,207.36 145.30048,207.36 L112.56064,207.36 C78.67136,207.36 51.2,179.88864 51.2,146.00192 L51.2,75.38432 C51.2,60.61312 63.17312,48.64 77.94432,48.64 L87.04,48.64 L87.04,145.10592 C87.04,161.10848 100.01152,174.08 116.01408,174.08 L140.28032,174.08 C156.11904,174.08 168.96,161.23904 168.96,145.40032 L168.96,74.94656 C168.96,60.41856 180.73856,48.64 195.26656,48.64 L204.8,48.64" fill="#FFFFFF"></path>
	</g>
</svg>
